X: 7722
T: Colonel Irwin
R: reel
M: 4/4
K: Eminor
|:Aeeg feed|BGdG Bddd|^cAeA cAAf|g2 gf/g/ a2 e2|
eaga bc'ba|geaf bedB|dBGB d2 ^ce|gf/e/ dB A2 A2:|
|:ecdB GBdB|A2 AB GEGB|ggdB GEGB|eefg a2 ab|
c'abg aeef|geaf bedB|eAAB GEEg|fedB A2 e2:|

